X:18995
T:Xiraldilla (CT 160)
R:Xiraldilla
C:Tradicional
S:Msica Tradicional Asturiana, (C) Tello & Tito. Asturies, 2001.
S:http://pagina.de/MusTradAst <telloytito@asturies.org>
N:Xiraldilla, transcrita en La Espina, ayuntamiento de Salas.
O:La Espina (Salas)
A:Asturies
Z:Cancioneru de Torner 160
M:3/8
L:1/8
Q:3/8=88
W:Cmo quieres que tenga la cara alegre,
W:si me dijo mi amante que no me quiere
W:Ay, de la pobre corderilla!
W:Va por el monte, va perdida;
W:va por el monte, va rendida.
K:G
G2B|ddc|dd2|Bdd|cB2|G2B|ddc|
dB2|AcB|AG2||FGA|c2B|AGG|G3|
FGA|c2B|AGG|G3|FGA|c2B|AGG|G3||
